X:1
T:A minor Ezra Goff, 1806
T:Isaac Watts, 1709 (Hymn 110, Book 1) 86. 86. (C. M.)
T:Bedford
T:No copyright. Transcribed from The Village Compilation, 1806.
%%score [ 1 2 3 4 ]
L:1/8
M:4/4
K:C
V:1 treble nm="Treble" snm="Tr."
V:2 treble nm="Counter" snm="C."
V:3 treble-8 nm="Tenor" snm="T."
V:4 bass nm="Bass" snm="B."
V:1
 A4 A2 e2 | e6 d2 | c2 d2 c2 B2 | B8 | c4 (B2 A2 | B2 d2 c2) B2 | A4 ^G4 | A8 | A4 G2 A2 | %9
w: |||||||||
 B2 c2 d2 e2 | e4 c4 | A2 A2 ^G2 G2 | A8 |: z8 | z8 | z8 | e2 AB c2 e2 | f2 f2 e2 e2 | %18
w: |||||||And here my spi- rit|wai- ting stands, And|
 c2 c2 d2 g2 | e2 ed e2 c2 | A2 A2 ^G2 G2 | A8 :| %22
w: here my spi- rit|wai- ting * stands, Till|God shall bid it|fly.|
V:2
 E4 E2 G2 | A6 G2 | E2 F2 E2 G2 | G8 | G4 (G4 | G2 A2 G2) F2 | E4 E4 | E8 | E4 E2 E2 | %9
w: 1.~There is a|house not|made * * with|hands,|E- ter-|* * * nal|and on|high;|And here my|
 G2 G2 G2 A2 | G4 G4 | F2 F2 E2 E2 | E8 |: z8 | z8 | G2 EF G2 A2 | G4 A2 E2 | (A4 G4 | A6) G2 | %19
w: spi- rit wai- ting|stands, Till|God shall bid it|fly.|||And here my spi- rit|wai- ting *|stands~ *|* Till|
 (G3 F E2) G2 | F4 E4 | E8 :| %22
w: God~ * * shall|bid it|fly.|
V:3
 e>fed c2 B2 | (A3 G A2) B2 | c2 B2 c2 d2 | e8 | e4 (d2 c2 | d2 f2 e2) d2 | c4 B4 | A8 | A4 B2 c2 | %9
w: |||||||||
 d2 e2 d2 c2 | B4 e4 | Ac Bd c2 B2 | A8 |: z8 | e2 AB c2 g2 | (e4 d2) c2 | B2 B2 A2 G2 | %17
w: |||||And here my spi- rit|wai- * ting|stands, Till God shall|
 A2 dc B2 B2 | (e4 A2 c2 | B2 d2 c2) e2 | (d2 c2) B4 | A8 :| %22
w: bid it * fly, Till|God~ * *|* * * shall|bid * it|fly.|
V:4
 A,4 A,2 E,2 | A,,6 E,2 | A,2 G,2 A,2 B,2 | E,8 | C,4 (G,4 | G,4 C,2) D,2 | E,4 E,4 | A,,8 | %8
w: ||||||||
 A,,4 E,2 A,2 | G,2 C2 B,2 A,2 | E,4 C,4 | D,2 D,2 E,2 E,2 | A,,8 |: A,2 E,F, G,2 G,2 | %14
w: |||||And here my spi- rit|
 (A,3 G, A,2) E,2 | (C,4 B,,2) A,,2 | (E,4 F,2) E,2 | D,2 D,2 E,2 E,2 | A,,2 A,,2 D,2 C,2 | %19
w: wai- * * ting|stands,~ * Till|God~ * shall|bid it fly, And|here my spi- rit|
 G,2 G,2 A,2 E,2 | F,2 D,2 E,2 E,2 | A,,8 :| %22
w: wai- ting stands, Till|God shall bid it|fly.|

